assets/img/gmailLogo.svg

<svg width="58" height="43" viewBox="0 0 58 43" fill="none" xmlns="http://www.w3.org/2000/svg">
<g clip-path="url(#clip0_1037_2269)">
<path d="M52.9298 0.0605469L4.16619 0.0955003C2.04928 0.598829 0.562108 2.21717 0.305944 4.35632L0.298828 37.5061C0.498067 40.0018 2.38727 41.8648 4.93468 42.0605H52.6594C55.157 41.8508 57.0249 40.0787 57.2988 37.6354V4.48215C57.0889 2.12629 55.3278 0.294735 52.9298 0.0605469ZM45.3303 2.44087L28.8682 15.9084L12.2638 2.44087H45.3303ZM47.7496 39.481C47.7496 39.481 47.561 39.6802 47.5468 39.6802H10.0473C10.0473 39.6802 9.84449 39.495 9.84449 39.481V12.081L28.7401 26.8698C29.2418 26.8978 30.4336 25.8911 30.8784 25.5451C35.991 21.5814 40.8332 17.2471 45.9387 13.2729C46.4723 12.857 47.1234 12.2173 47.7496 12.081V39.481ZM54.8083 37.9675C54.6625 38.6211 53.5809 39.6802 52.9227 39.6802H50.3717C50.3717 39.6802 50.1689 39.495 50.1689 39.481V9.10998C50.1689 8.54024 48.7707 7.86214 48.2655 8.42839C42.0357 13.1191 36.2934 18.4775 30.0708 23.1682C29.5904 23.5318 28.9038 24.2378 28.3203 23.8393L9.33216 8.42839C8.82339 7.86214 7.42516 8.54024 7.42516 9.10998V39.481C7.42516 39.481 7.24015 39.6802 7.22592 39.6802C6.49657 39.6802 5.32248 39.7851 4.6714 39.6802C3.67877 39.5159 2.79287 38.4848 2.72171 37.4991V4.48914C2.72883 3.73415 3.6254 2.68555 4.32985 2.50379C4.84218 2.37097 8.07269 2.36048 8.4427 2.56671L28.3594 18.6488H29.2347L49.2297 2.51078C51.3786 2.48631 54.3352 1.69986 54.8759 4.48565L54.8083 37.9675Z" fill="#F9F9F9"/>
</g>
<defs>
<clipPath id="clip0_1037_2269">
<rect width="57" height="42" fill="white" transform="translate(0.298828 0.0605469)"/>
</clipPath>
</defs>
</svg>

<svg xmlns="http://www.w3.org/2000/svg" width="58" height="43" fill="none"><g clip-path="url(#a)"><path fill="#F9F9F9" d="M52.93.06 4.166.097C2.05.599.562 2.217.306 4.356l-.007 33.15c.2 2.496 2.088 4.359 4.636 4.554h47.724c2.498-.21 4.366-1.981 4.64-4.425V4.482c-.21-2.356-1.971-4.187-4.37-4.421m-7.6 2.38L28.868 15.909 12.264 2.441zm2.42 37.041s-.189.2-.203.2h-37.5s-.203-.186-.203-.2v-27.4L28.74 26.87c.502.028 1.694-.979 2.138-1.325 5.113-3.964 9.955-8.298 15.06-12.272.534-.416 1.185-1.056 1.812-1.192zm7.058-1.514c-.145.654-1.227 1.713-1.885 1.713h-2.551s-.203-.185-.203-.199V9.11c0-.57-1.398-1.248-1.903-.682-6.23 4.691-11.973 10.05-18.195 14.74-.48.364-1.167 1.07-1.75.671L9.331 8.43c-.509-.567-1.907.111-1.907.681v30.371s-.185.2-.2.2c-.728 0-1.903.104-2.554 0-.992-.165-1.878-1.196-1.95-2.182V4.49c.008-.755.904-1.803 1.609-1.985.512-.133 3.743-.144 4.113.063l19.916 16.082h.876L49.23 2.51c2.149-.025 5.105-.811 5.646 1.975z"/></g><defs><clipPath id="a"><path fill="#fff" d="M.299.06h57v42h-57z"/></clipPath></defs></svg>
